!!!COM: Anonymous
!!!CDT: XVI c. [?]
!!!ODT: XVI c. [?]
!!!OTL: Bog wszechmogący Ociec nasz
!!!TXO: Polish
!!!GTL: Artomius Songbook
!!!voices: 4
!!!pag: 
!!!EFL: 
!!!YEM: Creative Commons CC/BY/NC/SA 4.0
!!!ENC: Marcin Konik
!!!END: 2015-05-06
!!!EED: Marcin Konik
!!!EEV: 
!!!ONB: Encoded in vim by Marcin Konik
!!!CharacterEncoding: utf-8
!!!RDF**kern: l=long note in original notation
!!!RDF**kern: i=editorial accidental
!!!RDF**kern: > = above
!!!RDF**kern: < = below
!!muse2ps: z14jc180F
!!title: @{OTL}, ed. @{ENC}
**kern	**kern	**kern	**kern
*part4	*part3	*part2	*part1
*staff4	*staff3	*staff2	*staff1
*clefF4	*clefGv2	*clefG2	*clefG2
*k[b-]	*k[b-]	*k[b-]	*k[b-]
*M2/2	*M2/2	*M2/2	*M2/2
=1-	=1-	=1-	=1-
2G	2B-	2d	2g
4G	4B-	4d	4b-
4G	4B-	4d	4b-
=2	=2	=2	=2
2D	2d	2f	2a
2G	2B-	2d	2g
=3	=3	=3	=3
4D	4A	4f	4dd
4D	4A	4f	4dd
4F	4A	4c	4cc
4G	4d	4g	4b-
=4	=4	=4	=4
2D	2d	2f	2a
2GG	2B-	2d	2g
=5	=5	=5	=5
2D	2A	2f	2f
4D	4A	4f	4f
4C	4c	4e	4g
=6	=6	=6	=6
2F	2c	2f	2a
2F	2c	2f	2a
=7	=7	=7	=7
4BB-	4d	4f	4b-
4F	4c	4f	4a
4G	4B-	4d	4g
4D	4A	4d	4f
=8	=8	=8	=8
2A	2A	2c	2e
2D	2A	2f	2d
=9	=9	=9	=9
2D	2A	2f	2dd
4D	4A	4f	4dd
4D	4A	4f	4dd
=10	=10	=10	=10
2F	2c	2f	2cc
2BB-	2d	2f	2b-
=11	=11	=11	=11
4F	4A	4f	4cc
4G	4B-	4d	4b-
4D	4d	4f	4a
4BB-	4d	4f	4b-
=12	=12	=12	=12
2C	2c	2e	2g
2D	2A	2d	2f
=13	=13	=13	=13
2G	2d	2g	2b-
4C	4e-i	4g	4cc
4G	4d	4g	4b-
=14	=14	=14	=14
2D	2d	2f	2a
2GG	2B-	2d	2g
==	==	==	==
*-	*-	*-	*-
